assets/img/dillards.svg

<svg fill="none" height="22" viewBox="0 0 97 22" width="97" xmlns="http://www.w3.org/2000/svg"><g clip-rule="evenodd" fill="#96ff94" fill-rule="evenodd"><path d="m6.70968 3.36951c0-1.53653.10234-2.3048.35819-2.544884.30701-.192067 1.43273-.480167 3.47953-.480167 9.2104 0 11.1036 6.146141 11.1036 9.795441 0 6.0981-3.0701 10.3236-9.8756 10.3236-2.25142 0-3.53065-.3362-4.34935-1.3445-.61403-.7683-.71637-1.8727-.71637-3.6013zm-2.81429 12.86849c0 3.5052-.10234 3.8893-2.1491 4.1294l-.767536.0961c-.204676.24-.102338.7202.051166.8643 1.68858-.0481 2.96781-.0961 4.40054-.0961 1.27922 0 3.47949.2881 5.73094.2881 2.7119 0 5.5774-.4321 7.88-1.5845 4.0424-2.0167 6.1403-5.666 6.1403-9.8435 0-4.36947-2.3538-8.11477-7.1125-9.699325-2.3026-.768267-4.8099-1.00835-7.7777-1.00835-2.96779 0-5.88442.048016-8.80106.240083-.35818.096034-.30701.624217-.05116.768267l.76753.096034c1.4839.240083 1.68858.960331 1.68858 3.265131z"/><path d="m27.433 11.7724c0-1.2964 0-1.4885-.9722-2.11269l-.307-.19207c-.2047-.09603-.2047-.52818 0-.62422.8187-.24008 2.8143-1.1524 3.633-1.58455.2047 0 .3582.04802.3582.19207-.0512 1.20042-.1024 2.78496-.1024 4.12946v5.954c0 2.3529.0512 2.689 1.3304 2.833l.7164.0961c.2558.192.2047.7202-.0512.8643-1.0234-.048-2.0467-.0961-3.326-.0961-1.2792 0-2.3026.0481-3.326.0961-.2558-.0961-.307-.6723-.0511-.8643l.7163-.0961c1.3304-.096 1.3816-.4321 1.3816-2.833zm2.8143-9.69933c0 1.1524-.8187 1.68058-1.7909 1.68058-1.0746 0-1.7909-.72025-1.7909-1.63256 0-1.05637.921-1.728605 1.9444-1.728605.9722-.048017 1.6374.720255 1.6374 1.680585z"/><path d="m37.3087 17.5344c0 2.3529.0512 2.689 1.3304 2.833l.8187.0961c.2558.192.2047.7202-.0512.8643-1.228-.0481-2.2514-.0961-3.4283-.0961-1.2792 0-2.3026.048-3.3772.0961-.2558-.0961-.307-.6723-.0511-.8643l.7675-.0961c1.3304-.096 1.3304-.4321 1.3304-2.833v-13.54068c0-1.92066 0-2.16075-1.0745-2.68893l-.3582-.24008c-.1024-.096038-.1024-.576205 0-.624222.921-.2881 2.6096-.768267 3.8377-1.392484.1023 0 .2558.048017.307.192067 0 1.008351-.0512 2.640919-.0512 4.129439z"/><path d="m44.7282 17.5344c0 2.3529.0512 2.689 1.3304 2.833l.8187.0961c.2558.192.2047.7202-.0512.8643-1.1257-.0481-2.1491-.0961-3.4283-.0961s-2.3026.048-3.3772.0961c-.2558-.0961-.307-.6723-.0511-.8643l.7675-.0961c1.3304-.096 1.3816-.4321 1.3816-2.833v-13.54068c0-1.92066-.0512-2.16075-1.0746-2.68893l-.3582-.24008c-.2046-.096038-.2046-.576205 0-.624222.8187-.2881 2.5073-.768267 3.7865-1.392484.1024 0 .2559.048017.3582.192067-.0511 1.008351-.1023 2.640919-.1023 4.129439z"/><path d="m49.8963 18.2067c0-1.2965 1.0234-1.8246 3.0701-2.4489.6141-.24 1.2281-.3361 1.4328-.3361.2046 0 .3581.048.3581.4322l-.0511 1.9206c0 .6723-.0512 1.1524-.4606 1.5366-.3581.3361-1.4327.8643-2.1491.8643-1.7909 0-2.2002-1.3925-2.2002-1.9687zm.1535-2.4008c-2.2514.7682-2.8655 1.5365-2.8655 2.8329 0 .9124.4094 1.7286 1.0746 2.3048.614.5282 1.4327.7203 2.4561.7203.9722 0 1.7397-.3841 2.5073-.7683.6652-.3841 1.0745-.6722 1.3304-.6722.2558 0 .4093.2881.614.4321.614.7203 1.4327 1.0084 2.3026 1.0084 1.6886 0 2.9678-1.2965 2.9678-1.3925 0-.2881-.1023-.4321-.2558-.4321-.1024 0-.3071.096-.4606.24-.2046.0961-.5628.2401-.921.2401-1.3304 0-1.6886-1.3444-1.5863-2.881l.2047-5.762c.1024-2.49685-1.1257-3.84132-3.6841-3.84132-2.5073 0-6.4985 2.30482-6.4985 4.08142 0 .2881.2047.4322.4605.4322.5629 0 1.4839-.2401 1.9956-.6243.307-.24.3582-.6242.3582-1.1524.0512-1.00832 1.2792-1.48848 2.2514-1.48848 2.2515 0 2.6608 1.63258 2.6096 2.83298v1.4885c-.0511.5282-.1023.7683-.614.9604z"/><path d="m62.535 11.7724c0-1.2964 0-1.4885-.9722-2.11268l-.307-.19207c-.2047-.09604-.2047-.52819 0-.62422.8187-.24008 2.7119-1.1524 3.5306-1.58455.2047 0 .3071.04802.3071.24008v1.92067c0 .19207.0511.24008.1023.2881 1.2281-.96033 2.5073-1.96868 3.8377-1.96868.921 0 1.5862.52818 1.5862 1.29645 0 1.0564-.9722 1.5365-1.4839 1.5365-.3582 0-.5629-.096-.7675-.2401-.5629-.33607-1.0234-.52813-1.4839-.52813-.6141 0-1.0234.28813-1.2793.62423-.3581.5282-.4605 1.3925-.4605 2.5449v4.5135c0 2.3529.0512 2.785 1.3816 2.833l1.2792.0961c.2559.192.2047.7202-.0512.8643-1.6374-.0481-2.6607-.0961-3.8888-.0961-1.2792 0-2.3026.048-3.1725.0961-.2558-.0961-.3582-.6723-.1023-.8643l.7163-.0961c1.2793-.192 1.3304-.4321 1.3304-2.833v-5.714z"/><path d="m80.0348 17.9186c0 .5762-.0512 1.0083-.2558 1.2484-.5629.5282-1.7398.9123-2.712.9123-3.4283 0-5.2192-2.833-5.2192-5.81 0-2.881 1.6374-5.47389 4.861-5.47389 1.3304 0 2.405.67223 2.9678 1.34449.2559.3361.3582.6722.3582 1.2964zm2.6096-14.64511c0-1.48852.0512-3.121089.1024-4.12944-.0512-.096033-.2047-.14405-.3582-.14405-1.2792.624217-2.8655 1.152401-3.7865 1.392484-.2047.048017-.2047.528184 0 .624216l.3582.24008c1.0233.57621 1.0745.76827 1.0745 2.68894v3.60125c0 .2881-.0512.43215-.2047.43215-.4093-.09603-1.228-.2881-2.4049-.2881-4.7587 0-8.494 2.92898-8.494 7.58668 0 3.4572 2.6096 6.3382 6.4984 6.3382 1.6886 0 2.8655-.5282 4.4517-1.5366h.1023c.0512.1921.0512.5762.0512 1.0084v.5762c0 .192.2047.2881.4094.2881.9722-.3361 3.1213-.8643 4.6563-1.0564.3071-.1921.2559-.9603 0-1.0083-.4605.192-1.0745.3361-1.4839.3361-.9722 0-1.0233-1.2485-1.0233-3.8414v-13.10851z"/><path d="m89.7568 3.46555c0 2.25679-1.9444 3.84134-4.1447 4.46555-.2558-.09603-.4093-.43215-.2558-.67223 1.3304-.5762 2.7119-1.48852 2.7119-2.83299 0-1.29645-1.0745-1.87265-1.7909-1.87265-.4605-.04801-.921-.2881-.921-.91231 0-.52819.307-1.344472 1.6886-1.344472 1.4327 0 2.7119 1.392482 2.7119 3.169102z"/><path d="m95.8972 8.31524c.307.72025.5629 1.82466.5629 2.68896-.1024.2401-.6652.2881-.8187.048-.614-1.39249-1.6374-2.35282-3.0702-2.35282-1.3815 0-2.3026.76826-2.3026 1.96872 0 1.3444 1.4839 2.1127 2.712 2.7849 1.8421.9604 3.633 2.1128 3.633 4.4656 0 2.4969-2.4561 3.7453-5.0657 3.7453-1.6886 0-2.8655-.3361-3.7865-.9603-.2559-.6243-.4606-2.2568-.4094-3.3132.2047-.2401.6652-.2401.8187-.048.614 1.8246 1.6886 3.4092 3.7353 3.4092 1.2793 0 2.3538-.6723 2.3538-2.1128 0-1.5365-1.4327-2.3528-2.7119-3.073-2.0468-1.0564-3.4795-2.2088-3.4795-4.0815 0-2.35277 2.0979-3.74526 4.7587-3.74526 1.4327 0 2.7119.33612 3.0701.5762z"/></g></svg>

<svg width="97" height="22" viewBox="0 0 97 22" fill="none" xmlns="http://www.w3.org/2000/svg">
<path fill-rule="evenodd" clip-rule="evenodd" d="M6.70968 3.36951C6.70968 1.83298 6.81202 1.06471 7.06787 0.824626C7.37488 0.632559 8.5006 0.344459 10.5474 0.344459C19.7578 0.344459 21.651 6.4906 21.651 10.1399C21.651 16.238 18.5809 20.4635 11.7754 20.4635C9.52398 20.4635 8.24475 20.1273 7.42605 19.119C6.81202 18.3507 6.70968 17.2463 6.70968 15.5177V3.36951ZM3.89539 16.238C3.89539 19.7432 3.79305 20.1273 1.74629 20.3674L0.978754 20.4635C0.774078 20.7035 0.876416 21.1837 1.02992 21.3278C2.7185 21.2797 3.99773 21.2317 5.43046 21.2317C6.70968 21.2317 8.90995 21.5198 11.1614 21.5198C13.8733 21.5198 16.7388 21.0877 19.0414 19.9353C23.0838 17.9186 25.1817 14.2693 25.1817 10.0918C25.1817 5.72233 22.8279 1.97703 18.0692 0.392475C15.7666 -0.375792 13.2593 -0.615875 10.2915 -0.615875C7.32371 -0.615875 4.40708 -0.567859 1.49044 -0.375792C1.13226 -0.279758 1.18343 0.248425 1.43928 0.392475L2.20681 0.488509C3.69071 0.728592 3.89539 1.44884 3.89539 3.75364V16.238Z" fill="#96FF94"/>
<path fill-rule="evenodd" clip-rule="evenodd" d="M27.433 11.7724C27.433 10.476 27.433 10.2839 26.4608 9.65971L26.1538 9.46764C25.9491 9.37161 25.9491 8.93946 26.1538 8.84342C26.9725 8.60334 28.9681 7.69102 29.7868 7.25887C29.9915 7.25887 30.145 7.30689 30.145 7.45094C30.0938 8.65136 30.0426 10.2359 30.0426 11.5804V17.5344C30.0426 19.8873 30.0938 20.2234 31.373 20.3674L32.0894 20.4635C32.3452 20.6555 32.2941 21.1837 32.0382 21.3278C31.0148 21.2798 29.9915 21.2317 28.7122 21.2317C27.433 21.2317 26.4096 21.2798 25.3862 21.3278C25.1304 21.2317 25.0792 20.6555 25.3351 20.4635L26.0514 20.3674C27.3818 20.2714 27.433 19.9353 27.433 17.5344V11.7724ZM30.2473 2.07307C30.2473 3.22547 29.4286 3.75365 28.4564 3.75365C27.3818 3.75365 26.6655 3.0334 26.6655 2.12109C26.6655 1.06472 27.5865 0.392485 28.6099 0.392485C29.5821 0.344468 30.2473 1.11274 30.2473 2.07307Z" fill="#96FF94"/>
<path fill-rule="evenodd" clip-rule="evenodd" d="M37.3087 17.5344C37.3087 19.8873 37.3599 20.2234 38.6391 20.3674L39.4578 20.4635C39.7136 20.6555 39.6625 21.1837 39.4066 21.3278C38.1786 21.2797 37.1552 21.2317 35.9783 21.2317C34.6991 21.2317 33.6757 21.2797 32.6011 21.3278C32.3453 21.2317 32.2941 20.6555 32.55 20.4635L33.3175 20.3674C34.6479 20.2714 34.6479 19.9353 34.6479 17.5344V3.99372C34.6479 2.07306 34.6479 1.83297 33.5734 1.30479L33.2152 1.06471C33.1128 0.968672 33.1128 0.488505 33.2152 0.440488C34.1362 0.152388 35.8248 -0.327779 37.0529 -0.951996C37.1552 -0.951996 37.3087 -0.903979 37.3599 -0.759929C37.3599 0.248422 37.3087 1.88099 37.3087 3.36951V17.5344Z" fill="#96FF94"/>
<path fill-rule="evenodd" clip-rule="evenodd" d="M44.7282 17.5344C44.7282 19.8873 44.7794 20.2234 46.0586 20.3674L46.8773 20.4635C47.1331 20.6555 47.082 21.1837 46.8261 21.3278C45.7004 21.2797 44.677 21.2317 43.3978 21.2317C42.1186 21.2317 41.0952 21.2797 40.0206 21.3278C39.7648 21.2317 39.7136 20.6555 39.9695 20.4635L40.737 20.3674C42.0674 20.2714 42.1186 19.9353 42.1186 17.5344V3.99372C42.1186 2.07306 42.0674 1.83297 41.044 1.30479L40.6858 1.06471C40.4812 0.968672 40.4812 0.488505 40.6858 0.440488C41.5045 0.152388 43.1931 -0.327779 44.4723 -0.951996C44.5747 -0.951996 44.7282 -0.903979 44.8305 -0.759929C44.7794 0.248422 44.7282 1.88099 44.7282 3.36951V17.5344Z" fill="#96FF94"/>
<path fill-rule="evenodd" clip-rule="evenodd" d="M49.8963 18.2067C49.8963 16.9102 50.9197 16.3821 52.9664 15.7578C53.5805 15.5178 54.1945 15.4217 54.3992 15.4217C54.6038 15.4217 54.7573 15.4697 54.7573 15.8539L54.7062 17.7745C54.7062 18.4468 54.655 18.9269 54.2456 19.3111C53.8875 19.6472 52.8129 20.1754 52.0965 20.1754C50.3056 20.1754 49.8963 18.7829 49.8963 18.2067ZM50.0498 15.8059C47.7984 16.5741 47.1843 17.3424 47.1843 18.6388C47.1843 19.5512 47.5937 20.3674 48.2589 20.9436C48.8729 21.4718 49.6916 21.6639 50.715 21.6639C51.6872 21.6639 52.4547 21.2798 53.2223 20.8956C53.8875 20.5115 54.2968 20.2234 54.5527 20.2234C54.8085 20.2234 54.962 20.5115 55.1667 20.6555C55.7807 21.3758 56.5994 21.6639 57.4693 21.6639C59.1579 21.6639 60.4371 20.3674 60.4371 20.2714C60.4371 19.9833 60.3348 19.8393 60.1813 19.8393C60.0789 19.8393 59.8742 19.9353 59.7207 20.0793C59.5161 20.1754 59.1579 20.3194 58.7997 20.3194C57.4693 20.3194 57.1111 18.975 57.2134 17.4384L57.4181 11.6764C57.5205 9.17955 56.2924 7.83508 53.734 7.83508C51.2267 7.83508 47.2355 10.1399 47.2355 11.9165C47.2355 12.2046 47.4402 12.3487 47.696 12.3487C48.2589 12.3487 49.1799 12.1086 49.6916 11.7244C49.9986 11.4844 50.0498 11.1002 50.0498 10.572C50.101 9.56368 51.329 9.08352 52.3012 9.08352C54.5527 9.08352 54.962 10.7161 54.9108 11.9165V13.405C54.8597 13.9332 54.8085 14.1733 54.2968 14.3654L50.0498 15.8059Z" fill="#96FF94"/>
<path fill-rule="evenodd" clip-rule="evenodd" d="M62.535 11.7724C62.535 10.476 62.535 10.2839 61.5628 9.65972L61.2558 9.46765C61.0511 9.37161 61.0511 8.93946 61.2558 8.84343C62.0745 8.60335 63.9677 7.69103 64.7864 7.25888C64.9911 7.25888 65.0935 7.3069 65.0935 7.49896V9.41963C65.0935 9.6117 65.1446 9.65971 65.1958 9.70773C66.4239 8.7474 67.7031 7.73905 69.0335 7.73905C69.9545 7.73905 70.6197 8.26723 70.6197 9.0355C70.6197 10.0919 69.6475 10.572 69.1358 10.572C68.7776 10.572 68.5729 10.476 68.3683 10.3319C67.8054 9.99583 67.3449 9.80377 66.8844 9.80377C66.2703 9.80377 65.861 10.0919 65.6051 10.428C65.247 10.9562 65.1446 11.8205 65.1446 12.9729V17.4864C65.1446 19.8393 65.1958 20.2714 66.5262 20.3194L67.8054 20.4155C68.0613 20.6075 68.0101 21.1357 67.7542 21.2798C66.1168 21.2317 65.0935 21.1837 63.8654 21.1837C62.5862 21.1837 61.5628 21.2317 60.6929 21.2798C60.4371 21.1837 60.3347 20.6075 60.5906 20.4155L61.3069 20.3194C62.5862 20.1274 62.6373 19.8873 62.6373 17.4864V11.7724H62.535Z" fill="#96FF94"/>
<path fill-rule="evenodd" clip-rule="evenodd" d="M80.0348 17.9186C80.0348 18.4948 79.9836 18.9269 79.779 19.167C79.2161 19.6952 78.0392 20.0793 77.067 20.0793C73.6387 20.0793 71.8478 17.2463 71.8478 14.2693C71.8478 11.3883 73.4852 8.79541 76.7088 8.79541C78.0392 8.79541 79.1138 9.46764 79.6766 10.1399C79.9325 10.476 80.0348 10.8121 80.0348 11.4363V17.9186ZM82.6444 3.27349C82.6444 1.78497 82.6956 0.152401 82.7468 -0.85595C82.6956 -0.951983 82.5421 -1 82.3886 -1C81.1094 -0.375783 79.5231 0.152401 78.6021 0.392484C78.3974 0.440501 78.3974 0.920668 78.6021 1.0167L78.9603 1.25678C79.9836 1.83299 80.0348 2.02505 80.0348 3.94572V7.54697C80.0348 7.83507 79.9836 7.97912 79.8301 7.97912C79.4208 7.88309 78.6021 7.69102 77.4252 7.69102C72.6665 7.69102 68.9312 10.62 68.9312 15.2777C68.9312 18.7349 71.5408 21.6159 75.4296 21.6159C77.1182 21.6159 78.2951 21.0877 79.8813 20.0793H79.9836C80.0348 20.2714 80.0348 20.6555 80.0348 21.0877V21.6639C80.0348 21.8559 80.2395 21.952 80.4442 21.952C81.4164 21.6159 83.5655 21.0877 85.1005 20.8956C85.4076 20.7035 85.3564 19.9353 85.1005 19.8873C84.64 20.0793 84.026 20.2234 83.6166 20.2234C82.6444 20.2234 82.5933 18.9749 82.5933 16.382V3.27349H82.6444Z" fill="#96FF94"/>
<path fill-rule="evenodd" clip-rule="evenodd" d="M89.7568 3.46555C89.7568 5.72234 87.8124 7.30689 85.6121 7.9311C85.3563 7.83507 85.2028 7.49895 85.3563 7.25887C86.6867 6.68267 88.0682 5.77035 88.0682 4.42588C88.0682 3.12943 86.9937 2.55323 86.2773 2.55323C85.8168 2.50522 85.3563 2.26513 85.3563 1.64092C85.3563 1.11273 85.6633 0.296448 87.0449 0.296448C88.4776 0.296448 89.7568 1.68893 89.7568 3.46555Z" fill="#96FF94"/>
<path fill-rule="evenodd" clip-rule="evenodd" d="M95.8972 8.31524C96.2042 9.03549 96.4601 10.1399 96.4601 11.0042C96.3577 11.2443 95.7949 11.2923 95.6414 11.0522C95.0274 9.65971 94.004 8.69938 92.5712 8.69938C91.1897 8.69938 90.2686 9.46764 90.2686 10.6681C90.2686 12.0125 91.7525 12.7808 92.9806 13.453C94.8227 14.4134 96.6136 15.5658 96.6136 17.9186C96.6136 20.4155 94.1575 21.6639 91.5479 21.6639C89.8593 21.6639 88.6824 21.3278 87.7614 20.7036C87.5055 20.0793 87.3008 18.4468 87.352 17.3904C87.5567 17.1503 88.0172 17.1503 88.1707 17.3424C88.7847 19.167 89.8593 20.7516 91.906 20.7516C93.1853 20.7516 94.2598 20.0793 94.2598 18.6388C94.2598 17.1023 92.8271 16.286 91.5479 15.5658C89.5011 14.5094 88.0684 13.357 88.0684 11.4843C88.0684 9.13153 90.1663 7.73904 92.8271 7.73904C94.2598 7.73904 95.539 8.07516 95.8972 8.31524Z" fill="#96FF94"/>
</svg>
